X:136
T:Wild Goose
S:American Veteran Fifer #136
C:By Theo. B. Jobe, Bugler Co.M.8th O.V.C.
M:2/4
L:1/8
Q:1/8=180
K:G 
%%MIDI program 72
%%MIDI transpose 8
%%MIDI ratio 3 1
dgde | BB/c/ B/A/G/z/ | G/A/B/c/ dB | A/G/A/B/ A2 |
dgde | BB/c/ B/A/G/z/ | G/A/B/c/ dB | A/G/A/B/ G2 :|
|: g2 b2 | g4 | GA Bd | A/G/A/B/ A2 |
g2 b2 | g4 | GA Bd | A/G/A/B/ G2 :|



